X: 1
T: Classical, The
M: 6/8
L: 1/8
R: jig
K: Bmin
|:B2d cFF|cde cBA|ABB dBB|fdg fed|
|Bcd cFF|cde cBA|BdB AFc|BcA B3:|
|:f2b d'c'b|c'd'c' fed|cde def|efg fga|
|b3 d'c'b|c'd'c' fed|BdB AFc|BcA B3:|
